X:14
T:The Prince of Denmark's March
M:2/4
Q:1/4=90
L:1/16
K:D
V:1
%%MIDI channel 1
%%MIDI program 72
%%MIDI transpose 8
%%MIDI grace 1/8
%%MIDI ratio 3 1
|:d4 Te2de|f2>g2 f2e2|d2e2 f2ed|e2AA A2A2|
d4 Te2de|f2>g2 f2e2|dede Te3d|d8::
f4 T^g2fg|a2>b2 a2g2|f2d2 d2A2|d2A2 F2D2|
f4 T^g2fg|a2>b2 a2g2|f2ed defg|e2 z6:|
d4 Te2de|f2>g2 f2e2|d2e2 f2ed|e2AA A2A2|
d4 Te2de|f2>g2 f2e2|dede Te3d|d8|
|:A2FG A2d2|A2FG A2d2|A2d2 f2ed|e2AA A2A2|
A2FG A2d2|A2FG A2d2|dede Te3d|d8:|
d4 Te2de|f2>g2 f2e2|d2e2 f2ed|e2AA A2A2|
d4 Te2de|f2>g2 f2e2|dede Te3d|d8|]
V:2
%%MIDI channel 1
%%MIDI program 72
%%MIDI transpose 8
%%MIDI grace 1/8
%%MIDI ratio 3 1
|:F4 A4|d2>e2 d2A2|F2A2 d2F2|A2AA A2A2|F4 A4|d2>e2 d2A2|F2G2 TA3G|F8::
d4 e4|A6 c2|d2A2 F4|A2F2 D4|d4 e4|A6 c2|d2A2 F2D2|A2z2 z4:|
F4 A4|d2>e2 d2A2|F2A2 d2F2|A2AA A2A2|F4 A4|d2>e2 d2A2|F2G2 TA3G|F8|
|:F2DE F4|F2DE F4|F2A2 F2A2|A2AA A2A2|F2DE F4|F2DE F4|F2G2 TA3G|F8:|
F4 A4|d2>e2 d2A2|F2A2 d2F2|A2AA A2A2|F4 A4|d2>e2 d2A2|F2G2 TA3G|F8|]
